X:1
T:James Gibb editions
T:Psalm 147 (Becker) - Schütz
%%score [ ( 1 2 ) ( 3 4 ) ]
L:1/8
Q:1/4=98
M:2/2
K:C
V:1 treble nm="Soprano Alto"
V:2 treble 
V:3 bass nm="Tenor Bass"
V:4 bass 
V:1
"^Cornelius Becker\n(1561-1604)""^Psalm 147, SWV 252""^Heinrich Schütz\n(1585-1672)" E4 | %1
w: ~Zu|
 A2 B2 c2 e2 | d2 c2 B2 G2 | A2 B2 c2 d2 x2 | e4 d4 | z2 d2 c2 B2 |[M:2/2] c2 A2 G2 F2 | %7
w: Lob und Ehr mit|Freu- den singt un-|serm Gott hoch er-|ho- ben;|denn es ist|gar ein köst- lich|
 E2 D2 A2 B2 | c2 d2 A4 | G4 B4 | c2 A2 B2 G2 | A2 c2 B2 e2 | c2 d2 e2 f2 | d4 c4 | B4 d2 e2 | %15
w: Ding, Gott, un- sern|Her- ren, lo-|ben. Drum|laßt uns un- serm|Gott zu Preis eins|um das an- der|sin- gen,|singt ei- ne|
 B2 d2 c2 A2 | ^G2 G2 A2 B2 | c2 B2 A4 | B4 e4 | d4 B4 | d4 A4 | (c4 B4) | A8 |] %23
w: geist- lich Ta- ge-|weis, laßt Har- fen-|spiel drein klin-|gen, un-|serm Gott|muß ge-|lin\- *|gen.|
V:2
 C4 | E2 E2 E2 G2 | G2 E2 E2 E2 | E2 G2 A2 A2 x2 | A4 ^F4 | z2 F2 E2 E2 |[M:2/2] E2 F2 E2 D2 | %7
 ^C2 A,2 A,2 G,2 | A,2 B,2 D4 | D4 E4 | E2 D2 D2 E2 | A,2 E2 E2 E2 | E2 G2 G2 A2 | G4 G4 | %14
 E4 F2 G2 | G2 G2 E2 A,2 | B,2 B,2 D2 D2 | C2 E2 C4 | B,4 G4 | G4 G4 | D4 D4 | E8 | E8 |] %23
V:3
 A,4 | C2 B,2 A,2 B,2 | B,2 A,2 ^G,2 B,2 | C2 B,2 A,2 D4 | ^C2 D4 z2 | A,2 A,2 ^G,2 x2 | %6
[M:2/2] A,2 C2 C2 A,2 | A,2 F,2 E,2 D,2 | E,2 G,4 ^F,2 | G,4 ^G,4 | A,2 ^F,2 G,2 G,2 | %11
 ^F,2 A,2 ^G,2 G,2 | A,2 B,2 C2 C2- | C2 B,2 C4 | G,4 A,2 C2 | D2 B,2 C2 D2 | E2 E,2 ^F,2 ^G,2 | %17
 A,2 B,2 (E,2 ^F,2) | %18
"^2. Gott hilft, da niemand helfen kunnt,\ner heilt zerbrochne Herzen, \nverbindet alls und macht gesund, \ner lindert alle Schmerzen. \nMit Namen er die Sterne nennt \nund ihr ganz Heer ausführet.\nGroß ist sein Kraft an allem End,\nkein Mensch hats ausstudieret, \nwie unser Gott regieret.\n\n4. Den Himmel er mit Wolken deckt \nund gibt Regen auf Erden, \nLaub und Gras sich gar lustig streckt, \nBerg und Tal fruchtbar werden, \nallem Vieh er sein Futter gibt, \nja, auch den jungen Raben, \nwenn sie verlassen, ganz betrübt, \nzu ihm ihr Zuflucht haben\nund leben seiner Gnade." ^G,4 C4 | %19
 B,4 D4 | %20
 G,4"^5. Des Rosses Stärk, des Mannes Kraft\nunserm Gott nicht gefallen,\nihr große Macht wenig Nutz schafft, \nwenn Gott nicht ist bei allen, \nan denen hat er Lust und Freud, \ndie in Gottesfurcht reine \nauf ihn hoffen zu jeder Zeit,\nverlassen sich alleine \nauf seine Güt gemeine.\n\n6. Jerusalem, du werte Stadt, \nsollst Gott den Herren preisen; \nZion, da er sein Wohnung hat, \nsoll loben gleicherweise. \nDer Herr macht feste ihre Tor, \nkein Feind kann sie gewinnen, \ner schiebt selbst starke Riegel vor, \nneigt zu ihr Herz und Sinne, \nsegnet die Kinder drinnen." F,4 | %21
 (E,2 A,4 ^G,2) | A,8 |] %23
V:4
 A,,4 | A,2 ^G,2 A,2 E,2 | =G,2 A,2 E,2 E,2 | A,2 G,2 F,2 D,2 x2 | A,4 D,4 | z2 D,2 A,,2 E,2 | %6
[M:2/2] A,2 F,2 C,2 D,2 | A,,2 D,2 C,2 B,,2 | A,,2 G,,2 D,4 | G,,4 E,4 | A,2 D,2 G,2 E,2 | %11
 D,2 A,,2 E,2 E,2 | A,2 G,2 C2 F,2 | G,4 C,4 | E,4 D,2 C,2 | G,2 G,2 A,2 F,2 | E,2 E,2 D,2 B,,2 | %17
 A,,2 ^G,,2 A,,4 | E,4 C,4 | G,4 G,,4 | B,,4 D,4 | (A,,B,,C,D, E,4) | A,,8 |] %23

